BPShop/img/footer/mastercard.svg

<svg width="29" height="22" viewBox="0 0 29 22" fill="none" xmlns="http://www.w3.org/2000/svg">
<path d="M5.27857 21.8761V20.4198C5.28728 20.2974 5.26911 20.1745 5.22528 20.0594C5.18145 19.9443 5.11296 19.8396 5.02438 19.7523C4.93579 19.6651 4.82915 19.5972 4.71155 19.5533C4.59395 19.5093 4.46809 19.4903 4.34236 19.4975C4.17779 19.487 4.01334 19.5197 3.86618 19.5923C3.71902 19.6649 3.59454 19.7746 3.50575 19.9101C3.42481 19.7787 3.309 19.671 3.17052 19.5984C3.03204 19.5258 2.87603 19.4909 2.71893 19.4975C2.58199 19.4908 2.44562 19.519 2.32333 19.5795C2.20104 19.6399 2.09708 19.7305 2.02175 19.8422V19.5558H1.50385V21.8761H2.02673V20.5994C2.01561 20.5201 2.02261 20.4393 2.04723 20.3629C2.07185 20.2865 2.11347 20.2164 2.16914 20.1575C2.22481 20.0986 2.29313 20.0524 2.36924 20.0222C2.44534 19.992 2.52734 19.9786 2.60938 19.9829C2.95299 19.9829 3.12728 20.2014 3.12728 20.5946V21.8858H3.65016V20.5994C3.6395 20.5202 3.64681 20.4396 3.6716 20.3634C3.69638 20.2872 3.73803 20.2172 3.7936 20.1584C3.84917 20.0996 3.91731 20.0534 3.9932 20.0231C4.06909 19.9928 4.15089 19.9791 4.23281 19.9829C4.58638 19.9829 4.75569 20.2014 4.75569 20.5946V21.8858L5.27857 21.8761ZM13.0148 19.5558H12.1632V18.8519H11.6403V19.5558H11.1672V20.0169H11.6503V21.0849C11.6503 21.6237 11.8644 21.9441 12.4769 21.9441C12.7058 21.9447 12.9301 21.8825 13.1243 21.7645L12.9749 21.3324C12.836 21.4132 12.6784 21.4583 12.5168 21.4635C12.2678 21.4635 12.1732 21.3082 12.1732 21.0752V20.0169H13.0197L13.0148 19.5558ZM17.4319 19.4975C17.3056 19.4939 17.1807 19.5235 17.0702 19.5833C16.9598 19.6431 16.868 19.7309 16.8044 19.8373V19.5558H16.2915V21.8761H16.8094V20.5752C16.8094 20.1917 16.9787 19.9781 17.3074 19.9781C17.4182 19.9766 17.5281 19.9964 17.6311 20.0363L17.7904 19.5509C17.6722 19.5096 17.5475 19.4883 17.4219 19.4878L17.4319 19.4975ZM10.7539 19.7402C10.4608 19.5703 10.1237 19.4861 9.78284 19.4975C9.18028 19.4975 8.78687 19.7791 8.78687 20.2402C8.78687 20.6189 9.07571 20.8519 9.60855 20.9247L9.85754 20.9587C10.1414 20.9975 10.2758 21.0703 10.2758 21.2014C10.2758 21.381 10.0866 21.4829 9.73305 21.4829C9.44865 21.491 9.16975 21.4055 8.94125 21.2402L8.69226 21.6334C8.99394 21.8388 9.35528 21.9443 9.72309 21.9344C10.4103 21.9344 10.8087 21.6189 10.8087 21.1771C10.8087 20.7354 10.495 20.5558 9.97706 20.4829L9.72806 20.449C9.50397 20.4198 9.3247 20.3761 9.3247 20.2208C9.3247 20.0655 9.49401 19.949 9.77786 19.949C10.0402 19.9519 10.2974 20.0205 10.5248 20.148L10.7539 19.7402ZM24.6253 19.4975C24.499 19.4939 24.3741 19.5235 24.2636 19.5833C24.1532 19.6431 24.0614 19.7309 23.9978 19.8373V19.5558H23.4998V21.8761H24.0152V20.5752C24.0152 20.1917 24.1846 19.9781 24.5132 19.9781C24.624 19.9766 24.734 19.9964 24.8369 20.0363L24.9963 19.5509C24.878 19.5096 24.7534 19.4883 24.6278 19.4878L24.6253 19.4975ZM17.9548 20.7111C17.9486 20.8742 17.9774 21.0367 18.0394 21.1883C18.1014 21.3398 18.1951 21.4771 18.3147 21.5914C18.4342 21.7056 18.5769 21.7942 18.7336 21.8516C18.8902 21.909 19.0575 21.9339 19.2246 21.9247C19.5356 21.9401 19.8412 21.8414 20.0812 21.648L19.8322 21.2402C19.6531 21.3733 19.4348 21.4465 19.2097 21.449C19.0183 21.4339 18.8397 21.3491 18.7094 21.2114C18.5792 21.0738 18.5069 20.8935 18.5069 20.7062C18.5069 20.519 18.5792 20.3387 18.7094 20.201C18.8397 20.0634 19.0183 19.9786 19.2097 19.9635C19.4348 19.966 19.6531 20.0392 19.8322 20.1723L20.0812 19.7645C19.8412 19.5711 19.5356 19.4724 19.2246 19.4878C19.0575 19.4786 18.8902 19.5034 18.7336 19.5608C18.5769 19.6182 18.4342 19.7069 18.3147 19.8211C18.1951 19.9354 18.1014 20.0726 18.0394 20.2242C17.9774 20.3758 17.9486 20.5383 17.9548 20.7014V20.7111ZM22.8051 20.7111V19.5558H22.2872V19.8373C22.1993 19.727 22.0857 19.6386 21.9558 19.5796C21.8259 19.5205 21.6835 19.4924 21.5403 19.4975C21.2101 19.4975 20.8934 19.6254 20.6599 19.853C20.4265 20.0805 20.2953 20.3892 20.2953 20.7111C20.2953 21.033 20.4265 21.3416 20.6599 21.5692C20.8934 21.7968 21.2101 21.9247 21.5403 21.9247C21.6835 21.9298 21.8259 21.9017 21.9558 21.8426C22.0857 21.7835 22.1993 21.6952 22.2872 21.5849V21.8664H22.8051V20.7111ZM20.8779 20.7111C20.8862 20.5745 20.9353 20.4433 21.0191 20.3335C21.1029 20.2238 21.2178 20.1403 21.3496 20.0934C21.4815 20.0465 21.6245 20.0382 21.7612 20.0696C21.8978 20.1009 22.022 20.1705 22.1186 20.2698C22.2151 20.3692 22.2798 20.4938 22.3046 20.6285C22.3293 20.7632 22.3132 20.902 22.2581 21.0278C22.203 21.1536 22.1113 21.261 21.9944 21.3367C21.8775 21.4124 21.7404 21.4531 21.6 21.4538C21.5014 21.455 21.4037 21.4363 21.3128 21.3989C21.222 21.3615 21.1401 21.3062 21.0723 21.2364C21.0045 21.1667 20.9522 21.084 20.9187 20.9936C20.8853 20.9032 20.8714 20.807 20.8779 20.7111ZM14.6282 19.4975C14.298 19.502 13.9832 19.6342 13.753 19.865C13.5228 20.0957 13.3961 20.4062 13.4007 20.7281C13.4053 21.0499 13.5409 21.3568 13.7777 21.5812C14.0144 21.8056 14.3329 21.9292 14.6631 21.9247C15.0205 21.942 15.3718 21.8296 15.6491 21.6091L15.4001 21.2354C15.2035 21.3891 14.9599 21.4745 14.7079 21.4781C14.5368 21.4918 14.367 21.4403 14.2342 21.3343C14.1013 21.2284 14.0159 21.0763 13.9958 20.9101H15.7636C15.7636 20.847 15.7636 20.7839 15.7636 20.7159C15.7636 19.9878 15.3005 19.5024 14.6332 19.5024L14.6282 19.4975ZM14.6282 19.949C14.7057 19.9473 14.7828 19.9606 14.855 19.9881C14.9273 20.0155 14.9932 20.0565 15.0492 20.1088C15.1051 20.1611 15.15 20.2236 15.1811 20.2928C15.2123 20.362 15.2292 20.4365 15.2308 20.5121H13.9858C13.9949 20.3563 14.0661 20.2101 14.1843 20.1048C14.3025 19.9996 14.4583 19.9436 14.6183 19.949H14.6282ZM27.6007 20.7159V18.6237H27.1027V19.8373C27.0148 19.727 26.9012 19.6386 26.7713 19.5796C26.6414 19.5205 26.499 19.4924 26.3558 19.4975C26.0256 19.4975 25.7089 19.6254 25.4754 19.853C25.242 20.0805 25.1108 20.3892 25.1108 20.7111C25.1108 21.033 25.242 21.3416 25.4754 21.5692C25.7089 21.7968 26.0256 21.9247 26.3558 21.9247C26.499 21.9298 26.6414 21.9017 26.7713 21.8426C26.9012 21.7835 27.0148 21.6952 27.1027 21.5849V21.8664H27.6007V20.7159ZM25.6735 20.7159C25.6818 20.5794 25.7308 20.4481 25.8147 20.3384C25.8985 20.2286 26.0134 20.1452 26.1452 20.0983C26.2771 20.0514 26.4201 20.0431 26.5568 20.0744C26.6934 20.1058 26.8176 20.1754 26.9142 20.2747C27.0107 20.374 27.0754 20.4987 27.1001 20.6334C27.1249 20.768 27.1088 20.9068 27.0537 21.0327C26.9986 21.1585 26.9069 21.2659 26.79 21.3416C26.673 21.4172 26.536 21.458 26.3956 21.4587C26.297 21.4599 26.1992 21.4412 26.1084 21.4038C26.0176 21.3664 25.9357 21.3111 25.8679 21.2413C25.8001 21.1715 25.7478 21.0888 25.7143 20.9984C25.6809 20.908 25.667 20.8118 25.6735 20.7159ZM8.1868 20.7159V19.5558H7.68135V19.8373C7.5934 19.727 7.47979 19.6386 7.34991 19.5796C7.22003 19.5205 7.0776 19.4924 6.93437 19.4975C6.60419 19.4975 6.28753 19.6254 6.05405 19.853C5.82058 20.0805 5.68941 20.3892 5.68941 20.7111C5.68941 21.033 5.82058 21.3416 6.05405 21.5692C6.28753 21.7968 6.60419 21.9247 6.93437 21.9247C7.0776 21.9298 7.22003 21.9017 7.34991 21.8426C7.47979 21.7835 7.5934 21.6952 7.68135 21.5849V21.8664H8.19925L8.1868 20.7159ZM6.2596 20.7159C6.26786 20.5794 6.31692 20.4481 6.40073 20.3384C6.48454 20.2286 6.59945 20.1452 6.7313 20.0983C6.86316 20.0514 7.00621 20.0431 7.14283 20.0744C7.27946 20.1058 7.40369 20.1754 7.50024 20.2747C7.59679 20.374 7.66144 20.4987 7.68622 20.6334C7.71101 20.768 7.69485 20.9068 7.63974 21.0327C7.58462 21.1585 7.49296 21.2659 7.37604 21.3416C7.25912 21.4172 7.12204 21.458 6.98168 21.4587C6.88372 21.4589 6.78676 21.4394 6.69683 21.4016C6.60689 21.3637 6.5259 21.3083 6.45889 21.2386C6.39187 21.169 6.34026 21.0866 6.30726 20.9967C6.27427 20.9068 6.26059 20.8112 6.26707 20.7159H6.2596ZM28.4647 21.5388C28.4973 21.5391 28.5294 21.5457 28.5594 21.5582C28.5871 21.5698 28.6124 21.5863 28.634 21.6067C28.6559 21.6276 28.6737 21.6523 28.6863 21.6795C28.6988 21.708 28.7055 21.7384 28.7063 21.7693C28.7061 21.8003 28.6994 21.8309 28.6863 21.8591C28.6748 21.887 28.6569 21.9119 28.634 21.932C28.613 21.9538 28.5876 21.9711 28.5594 21.9829C28.5292 21.9945 28.4971 22.0003 28.4647 21.9999C28.4328 22.0007 28.4011 21.9951 28.3715 21.9834C28.342 21.9717 28.3152 21.9542 28.2929 21.932C28.27 21.9119 28.2521 21.887 28.2406 21.8591C28.2284 21.8307 28.2225 21.8001 28.2232 21.7693C28.2227 21.7386 28.2287 21.708 28.2406 21.6795C28.2533 21.6523 28.271 21.6276 28.2929 21.6067C28.3157 21.5864 28.3418 21.57 28.3701 21.5582C28.4024 21.5448 28.4372 21.5382 28.4722 21.5388H28.4647ZM28.4647 21.949C28.4887 21.9526 28.513 21.9526 28.5369 21.949C28.5575 21.9383 28.5768 21.9252 28.5942 21.9101C28.6111 21.8933 28.6246 21.8735 28.634 21.8519C28.638 21.8286 28.638 21.8048 28.634 21.7815C28.6378 21.7582 28.6378 21.7344 28.634 21.7111C28.6246 21.6901 28.6111 21.6712 28.5942 21.6553C28.5774 21.6394 28.5581 21.6263 28.5369 21.6164C28.4902 21.6003 28.4392 21.6003 28.3925 21.6164C28.3703 21.6256 28.35 21.6388 28.3328 21.6553C28.3159 21.6712 28.3024 21.6901 28.2929 21.7111C28.285 21.7338 28.2808 21.7575 28.2805 21.7815C28.2805 21.8055 28.2848 21.8293 28.2929 21.8519C28.3024 21.8735 28.3159 21.8933 28.3328 21.9101C28.3507 21.9258 28.3708 21.9389 28.3925 21.949C28.4189 21.9534 28.4458 21.9534 28.4722 21.949H28.4647ZM28.4797 21.6625C28.5026 21.6607 28.5255 21.6667 28.5444 21.6795C28.5519 21.6858 28.5578 21.6937 28.5617 21.7025C28.5655 21.7113 28.5673 21.7209 28.5668 21.7305C28.5672 21.7386 28.5658 21.7466 28.5628 21.7541C28.5598 21.7617 28.5552 21.7685 28.5494 21.7742C28.5351 21.7871 28.5166 21.7949 28.4971 21.796L28.5693 21.8761H28.512L28.4448 21.796H28.4249V21.8761H28.3776V21.6625H28.4797ZM28.4249 21.7014V21.7596H28.4772C28.4869 21.7625 28.4973 21.7625 28.5071 21.7596C28.5107 21.7572 28.5136 21.7539 28.5156 21.7501C28.5176 21.7463 28.5187 21.7421 28.5187 21.7378C28.5187 21.7335 28.5176 21.7293 28.5156 21.7255C28.5136 21.7217 28.5107 21.7184 28.5071 21.7159C28.4973 21.7131 28.4869 21.7131 28.4772 21.7159L28.4249 21.7014ZM28.1435 14.1577V13.8762H28.2606V13.8203H27.9643V13.8762H28.0987V14.1577H28.1435ZM28.7187 14.1577V13.8203H28.6291L28.5245 14.0631L28.4199 13.8203H28.3477V14.1577H28.4124V13.915L28.5096 14.1359H28.5768L28.6739 13.915V14.1577H28.7187ZM13.702 15.8567L13.9186 16.0315C12.568 16.9048 10.9999 17.4048 9.38097 17.4783C7.76206 17.5519 6.15298 17.1962 4.72497 16.4491C3.29695 15.702 2.10343 14.5916 1.27141 13.2358C0.439389 11.8801 0 10.3298 0 8.74997C0 7.17014 0.439389 5.61987 1.27141 4.26413C2.10343 2.90838 3.29695 1.79789 4.72497 1.05083C6.15298 0.303759 7.76206 -0.0519308 9.38097 0.0216074C10.9999 0.0951455 12.568 0.59516 13.9186 1.46844L13.702 1.6432C12.6592 2.52653 11.823 3.61776 11.2499 4.84317C10.6769 6.06858 10.3804 7.39961 10.3804 8.74633C10.3804 10.093 10.6769 11.4241 11.2499 12.6495C11.823 13.8749 12.6592 14.9661 13.702 15.8495V15.8567ZM20.0438 0.00728146C18.2783 0.00351565 16.5513 0.510326 15.0814 1.46359L15.298 1.63834C16.3416 2.52123 17.1784 3.61232 17.7519 4.83779C18.3255 6.06326 18.6223 7.39451 18.6223 8.74147C18.6223 10.0884 18.3255 11.4197 17.7519 12.6452C17.1784 13.8706 16.3416 14.9617 15.298 15.8446L15.0814 16.0194C16.2465 16.7727 17.5762 17.25 18.9643 17.413C20.3523 17.5759 21.7603 17.4202 23.0756 16.9581C24.3909 16.496 25.577 15.7403 26.5393 14.7516C27.5015 13.7629 28.2131 12.5684 28.6173 11.2637C29.0215 9.95905 29.1069 8.5803 28.8669 7.23766C28.6269 5.89502 28.068 4.62573 27.2349 3.53123C26.4018 2.43673 25.3176 1.54737 24.069 0.934224C22.8204 0.321077 21.4419 0.00114597 20.0438 0V0.00728146ZM14.5037 1.87863C14.3892 1.96601 14.2747 2.05825 14.1651 2.15048C13.1975 2.97069 12.4218 3.98371 11.8901 5.12115C11.3585 6.25858 11.0834 7.49397 11.0834 8.7439C11.0834 9.99383 11.3585 11.2292 11.8901 12.3667C12.4218 13.5041 13.1975 14.5171 14.1651 15.3373C14.2747 15.4296 14.3892 15.5218 14.5037 15.6116C14.6208 15.5218 14.7328 15.4296 14.8424 15.3373C15.8099 14.5171 16.5857 13.5041 17.1173 12.3667C17.649 11.2292 17.9241 9.99383 17.9241 8.7439C17.9241 7.49397 17.649 6.25858 17.1173 5.12115C16.5857 3.98371 15.8099 2.97069 14.8424 2.15048C14.7328 2.05825 14.6208 1.96601 14.5037 1.87863Z" fill="#7F7F7F"/>
</svg>

<svg width="29" height="22" fill="none" xmlns="http://www.w3.org/2000/svg"><path d="M5.279 21.876V20.42a.844.844 0 00-.255-.668.89.89 0 00-.682-.255.941.941 0 00-.476.095.913.913 0 00-.36.318.865.865 0 00-.335-.312.893.893 0 00-.452-.1.804.804 0 00-.396.081.78.78 0 00-.301.263v-.286h-.518v2.32h.523V20.6a.53.53 0 01.142-.442.559.559 0 01.44-.174c.344 0 .518.218.518.612v1.29h.523V20.6a.533.533 0 01.144-.44.56.56 0 01.439-.176c.353 0 .523.218.523.612v1.29l.523-.009zm7.736-2.32h-.852v-.704h-.523v.704h-.473v.46h.483v1.069c0 .539.214.86.827.86.229 0 .453-.063.647-.18l-.15-.433a.974.974 0 01-.457.131c-.25 0-.344-.155-.344-.388v-1.058h.847l-.005-.461zm4.417-.059a.717.717 0 00-.362.086.695.695 0 00-.266.254v-.281h-.512v2.32h.517v-1.3c0-.384.17-.598.498-.598a.872.872 0 01.324.058l.16-.485a1.131 1.131 0 00-.37-.063l.01.01zm-6.678.243a1.817 1.817 0 00-.971-.242c-.603 0-.996.281-.996.742 0 .379.289.612.822.685l.249.034c.283.038.418.111.418.242 0 .18-.19.282-.543.282a1.29 1.29 0 01-.792-.243l-.249.393c.302.206.663.311 1.031.301.687 0 1.086-.315 1.086-.757s-.314-.621-.832-.694l-.249-.034c-.224-.03-.403-.073-.403-.228 0-.155.169-.272.453-.272.262.003.52.071.747.199l.229-.408zm13.871-.242a.717.717 0 00-.361.085.695.695 0 00-.266.254v-.281H23.5v2.32h.515v-1.3c0-.384.17-.598.498-.598a.872.872 0 01.324.058l.16-.485a1.132 1.132 0 00-.37-.063l-.002.01zm-6.67 1.213a1.145 1.145 0 00.36.88 1.207 1.207 0 00.91.334c.31.015.616-.084.856-.277l-.249-.408a1.06 1.06 0 01-.622.209.772.772 0 01-.5-.238.735.735 0 010-1.01.773.773 0 01.5-.238c.225.003.443.076.622.21l.25-.408a1.266 1.266 0 00-.857-.277 1.23 1.23 0 00-.91.333 1.17 1.17 0 00-.36.88v.01zm4.85 0v-1.155h-.518v.281a.924.924 0 00-.747-.34c-.33 0-.647.128-.88.356a1.198 1.198 0 00-.365.858c0 .322.131.63.365.858.233.228.55.356.88.356a.924.924 0 00.747-.34v.281h.518v-1.155zm-1.927 0a.691.691 0 01.141-.377.737.737 0 011.1-.064.686.686 0 01.14.758.706.706 0 01-.265.309.733.733 0 01-.681.062.714.714 0 01-.394-.405.682.682 0 01-.041-.283zm-6.25-1.213a1.26 1.26 0 00-.875.367 1.195 1.195 0 00.025 1.716c.236.225.555.348.885.344a1.47 1.47 0 00.986-.316l-.249-.374c-.197.154-.44.24-.692.243a.674.674 0 01-.474-.144.641.641 0 01-.238-.424h1.768v-.194c0-.728-.463-1.214-1.13-1.214l-.006-.005zm0 .451a.6.6 0 01.421.16.575.575 0 01.182.403h-1.245a.592.592 0 01.198-.407.622.622 0 01.434-.156h.01zm12.973.767v-2.092h-.498v1.213a.924.924 0 00-.747-.34c-.33 0-.647.128-.88.356a1.198 1.198 0 00-.365.858c0 .322.131.63.364.858.234.228.55.356.88.356a.924.924 0 00.748-.34v.281h.498v-1.15zm-1.927 0a.69.69 0 01.14-.378.718.718 0 01.331-.24.738.738 0 01.77.177.695.695 0 01.139.758.706.706 0 01-.264.309.734.734 0 01-.682.062.714.714 0 01-.394-.406.682.682 0 01-.04-.282zm-17.487 0v-1.16H7.68v.281a.924.924 0 00-.747-.34c-.33 0-.646.128-.88.356a1.198 1.198 0 00-.365.858c0 .322.132.63.365.858.234.228.55.356.88.356a.924.924 0 00.747-.34v.281h.52l-.012-1.15zm-1.927 0a.69.69 0 01.14-.378.718.718 0 01.331-.24.738.738 0 01.77.177.695.695 0 01.139.758.706.706 0 01-.264.309.734.734 0 01-.68.06.715.715 0 01-.389-.405.68.68 0 01-.04-.281H6.26zm22.205.823a.252.252 0 01.169.068.24.24 0 01.052.073.216.216 0 010 .18.197.197 0 01-.052.072.223.223 0 01-.17.068.237.237 0 01-.171-.068.215.215 0 01-.07-.163c0-.03.006-.061.018-.09a.242.242 0 01.231-.14h-.007zm0 .41a.243.243 0 00.072 0 .188.188 0 00.097-.097.208.208 0 000-.07.219.219 0 000-.07.174.174 0 00-.04-.057.216.216 0 00-.057-.039.222.222 0 00-.145 0 .193.193 0 00-.1.095.209.209 0 000 .14.19.19 0 00.04.06.251.251 0 00.06.038.242.242 0 00.08 0h-.007zm.015-.287a.101.101 0 01.064.018.063.063 0 01.022.051.058.058 0 01-.017.044.085.085 0 01-.052.021l.072.08h-.057l-.067-.08h-.02v.08h-.047v-.213h.102zm-.055.04v.058h.052c.01.002.02.002.03 0a.026.026 0 000-.044.054.054 0 00-.03 0l-.052-.015zm-.282-7.544v-.282h.118v-.056h-.297v.056h.135v.282h.044zm.576 0v-.338h-.09l-.105.243-.104-.243h-.072v.338h.064v-.243l.098.22h.067l.097-.22v.243h.045zm-15.017 1.699l.217.175a9.122 9.122 0 01-4.538 1.446 9.153 9.153 0 01-4.656-1.029 8.87 8.87 0 01-3.454-3.213A8.572 8.572 0 010 8.75c0-1.58.44-3.13 1.271-4.486a8.87 8.87 0 013.454-3.213A9.154 9.154 0 019.381.02a9.123 9.123 0 014.538 1.447l-.217.175a9.435 9.435 0 00-2.452 3.2 9.21 9.21 0 00-.87 3.903c0 1.347.297 2.678.87 3.903a9.436 9.436 0 002.452 3.2v.008zM20.044.007a9.09 9.09 0 00-4.963 1.457l.217.174a9.428 9.428 0 012.454 3.2 9.205 9.205 0 01.87 3.903 9.205 9.205 0 01-.87 3.904 9.43 9.43 0 01-2.454 3.2l-.217.174a9.11 9.11 0 003.883 1.394 9.182 9.182 0 004.112-.455 8.99 8.99 0 003.463-2.206 8.69 8.69 0 002.078-3.488 8.526 8.526 0 00.25-4.026 8.625 8.625 0 00-1.632-3.707A8.911 8.911 0 0024.069.934 9.153 9.153 0 0020.044 0v.007zm-5.54 1.872a8.76 8.76 0 00-2.614 3.243 8.553 8.553 0 00-.807 3.622c0 1.25.275 2.485.807 3.623a8.76 8.76 0 002.614 3.245c.117-.09.229-.182.338-.275a8.76 8.76 0 002.275-2.97 8.552 8.552 0 00.807-3.623 8.55 8.55 0 00-.807-3.623 8.76 8.76 0 00-2.613-3.242z" fill="#7F7F7F"/></svg>
